flaticon/medical/eye-1.svg

<svg xmlns="http://www.w3.org/2000/svg" width="32" height="32" viewBox="0 0 24 24">
    <path d="M9.199219 6.398438C9.199219 6.621094 9.019531 6.800781 8.800781 6.800781 8.578125 6.800781 8.398438 6.621094 8.398438 6.398438 8.398438 6.179688 8.578125 6 8.800781 6 9.019531 6 9.199219 6.179688 9.199219 6.398438zM9.601562 18.800781C9.601562 19.019531 9.421875 19.199219 9.199219 19.199219 8.980469 19.199219 8.800781 19.019531 8.800781 18.800781 8.800781 18.578125 8.980469 18.398438 9.199219 18.398438 9.421875 18.398438 9.601562 18.578125 9.601562 18.800781zM11.601562 17.199219C11.601562 17.421875 11.421875 17.601562 11.199219 17.601562 10.980469 17.601562 10.800781 17.421875 10.800781 17.199219 10.800781 16.980469 10.980469 16.800781 11.199219 16.800781 11.421875 16.800781 11.601562 16.980469 11.601562 17.199219zM9.199219 15.199219C9.199219 15.421875 9.019531 15.601562 8.800781 15.601562 8.578125 15.601562 8.398438 15.421875 8.398438 15.199219 8.398438 14.980469 8.578125 14.800781 8.800781 14.800781 9.019531 14.800781 9.199219 14.980469 9.199219 15.199219zM12 14.800781C12 15.019531 11.820312 15.199219 11.601562 15.199219 11.378906 15.199219 11.199219 15.019531 11.199219 14.800781 11.199219 14.578125 11.378906 14.398438 11.601562 14.398438 11.820312 14.398438 12 14.578125 12 14.800781zM9.601562 12C9.601562 12.222656 9.421875 12.398438 9.199219 12.398438 8.980469 12.398438 8.800781 12.222656 8.800781 12 8.800781 11.777344 8.980469 11.601562 9.199219 11.601562 9.421875 11.601562 9.601562 11.777344 9.601562 12zM11.199219 8.800781C11.199219 9.019531 11.019531 9.199219 10.800781 9.199219 10.578125 9.199219 10.398438 9.019531 10.398438 8.800781 10.398438 8.578125 10.578125 8.398438 10.800781 8.398438 11.019531 8.398438 11.199219 8.578125 11.199219 8.800781zM8.800781 8.800781C8.800781 9.019531 8.621094 9.199219 8.398438 9.199219 8.179688 9.199219 8 9.019531 8 8.800781 8 8.578125 8.179688 8.398438 8.398438 8.398438 8.621094 8.398438 8.800781 8.578125 8.800781 8.800781zM11.601562 4.398438C11.601562 4.621094 11.421875 4.800781 11.199219 4.800781 10.980469 4.800781 10.800781 4.621094 10.800781 4.398438 10.800781 4.179688 10.980469 4 11.199219 4 11.421875 4 11.601562 4.179688 11.601562 4.398438zM6 9.601562C6 9.820312 5.820312 10 5.601562 10 5.378906 10 5.199219 9.820312 5.199219 9.601562 5.199219 9.378906 5.378906 9.199219 5.601562 9.199219 5.820312 9.199219 6 9.378906 6 9.601562zM6 10.800781C6 11.019531 5.820312 11.199219 5.601562 11.199219 5.378906 11.199219 5.199219 11.019531 5.199219 10.800781 5.199219 10.578125 5.378906 10.398438 5.601562 10.398438 5.820312 10.398438 6 10.578125 6 10.800781zM6 12C6 12.222656 5.820312 12.398438 5.601562 12.398438 5.378906 12.398438 5.199219 12.222656 5.199219 12 5.199219 11.777344 5.378906 11.601562 5.601562 11.601562 5.820312 11.601562 6 11.777344 6 12zM6 13.199219C6 13.421875 5.820312 13.601562 5.601562 13.601562 5.378906 13.601562 5.199219 13.421875 5.199219 13.199219 5.199219 12.980469 5.378906 12.800781 5.601562 12.800781 5.820312 12.800781 6 12.980469 6 13.199219zM6 14.398438C6 14.621094 5.820312 14.800781 5.601562 14.800781 5.378906 14.800781 5.199219 14.621094 5.199219 14.398438 5.199219 14.179688 5.378906 14 5.601562 14 5.820312 14 6 14.179688 6 14.398438zM6 14.398438"/>
    <path d="M 23.601562 12.800781 L 21.96875 12.800781 L 21.925781 13.152344 C 21.328125 17.96875 17.058594 21.601562 12 21.601562 C 10.394531 21.601562 9.253906 21.238281 8.515625 20.492188 C 7.386719 19.359375 7.203125 17.339844 7.1875 14.933594 C 7.214844 14.363281 7.210938 13.699219 7.203125 12.957031 C 7.203125 12.648438 7.199219 12.328125 7.199219 12 C 7.199219 11.65625 7.203125 11.316406 7.207031 10.992188 C 7.210938 10.246094 7.214844 9.578125 7.1875 9.007812 C 7.207031 6.625 7.398438 4.632812 8.515625 3.507812 C 9.253906 2.761719 10.394531 2.398438 12 2.398438 C 17.058594 2.398438 21.328125 6.03125 21.925781 10.847656 L 21.96875 11.199219 L 23.601562 11.199219 C 23.820312 11.199219 24 11.019531 24 10.800781 C 24 10.578125 23.820312 10.398438 23.601562 10.398438 L 22.671875 10.398438 C 21.863281 5.359375 17.339844 1.601562 12 1.601562 C 8.082031 1.601562 4.488281 3.105469 2.300781 5.636719 C 2.226562 5.613281 2.148438 5.601562 2.066406 5.601562 C 0.648438 5.601562 0 8.917969 0 12 C 0 15.082031 0.648438 18.398438 2.066406 18.398438 C 2.148438 18.398438 2.226562 18.386719 2.300781 18.363281 C 4.488281 20.894531 8.082031 22.398438 12 22.398438 C 17.339844 22.398438 21.863281 18.640625 22.671875 13.601562 L 23.601562 13.601562 C 23.820312 13.601562 24 13.421875 24 13.199219 C 24 12.980469 23.820312 12.800781 23.601562 12.800781 Z M 0.800781 12 C 0.800781 8.390625 1.628906 6.414062 2.089844 6.414062 L 2.09375 6.421875 C 2.445312 6.796875 2.425781 8.675781 2.410156 10.496094 C 2.40625 10.976562 2.398438 11.480469 2.398438 12 C 2.398438 12.519531 2.40625 13.023438 2.410156 13.503906 C 2.414062 14.019531 2.417969 14.535156 2.414062 15.023438 C 2.40625 16.277344 2.339844 17.332031 2.066406 17.601562 C 1.636719 17.601562 0.800781 15.625 0.800781 12 Z M 2.882812 17.820312 C 3.011719 17.558594 3.09375 17.203125 3.140625 16.742188 C 3.140625 16.738281 3.144531 16.734375 3.144531 16.730469 C 3.191406 16.273438 3.210938 15.707031 3.214844 15.027344 C 3.214844 15.027344 3.214844 15.027344 3.214844 15.023438 C 3.21875 14.570312 3.214844 14.070312 3.210938 13.507812 C 3.207031 13.027344 3.199219 12.519531 3.199219 12 C 3.199219 11.480469 3.207031 10.972656 3.210938 10.492188 C 3.214844 9.929688 3.21875 9.429688 3.214844 8.972656 C 3.210938 8.292969 3.191406 7.726562 3.144531 7.265625 C 3.144531 7.261719 3.140625 7.261719 3.140625 7.257812 C 3.09375 6.796875 3.011719 6.441406 2.882812 6.175781 C 4.125 4.730469 5.871094 3.644531 7.878906 3.015625 C 6.984375 3.96875 6.617188 5.324219 6.476562 6.929688 C 6.332031 6.847656 6.171875 6.800781 6 6.800781 C 4.632812 6.800781 3.601562 9.035156 3.601562 12 C 3.601562 14.964844 4.632812 17.199219 6 17.199219 C 6.171875 17.199219 6.332031 17.152344 6.476562 17.066406 C 6.617188 18.675781 6.984375 20.03125 7.878906 20.980469 C 5.871094 20.355469 4.125 19.269531 2.882812 17.820312 Z M 6.394531 10.679688 C 6.394531 11.113281 6.398438 11.554688 6.398438 12 C 6.398438 12.445312 6.394531 12.886719 6.394531 13.320312 C 6.386719 13.859375 6.386719 14.382812 6.386719 14.894531 C 6.355469 15.613281 6.277344 16.175781 6.089844 16.363281 C 6.0625 16.390625 6.039062 16.398438 6 16.398438 C 5.246094 16.398438 4.398438 14.519531 4.398438 12 C 4.398438 9.480469 5.246094 7.601562 6 7.601562 C 6.042969 7.601562 6.066406 7.609375 6.09375 7.636719 C 6.277344 7.820312 6.355469 8.351562 6.386719 9.035156 C 6.382812 9.570312 6.386719 10.117188 6.394531 10.679688 Z M 6.394531 10.679688"/>
    <path d="M 23.601562 11.601562 L 21.367188 11.601562 L 14.800781 5.035156 L 14.800781 3.601562 C 14.800781 3.378906 14.621094 3.199219 14.398438 3.199219 C 14.179688 3.199219 14 3.378906 14 3.601562 L 14 4.800781 L 12.800781 4.800781 C 12.578125 4.800781 12.398438 4.980469 12.398438 5.199219 C 12.398438 5.421875 12.578125 5.601562 12.800781 5.601562 L 14.234375 5.601562 L 20.234375 11.601562 L 18.164062 11.601562 L 15.28125 8.71875 C 15.257812 8.691406 15.226562 8.679688 15.199219 8.664062 L 15.199219 7.199219 C 15.199219 6.980469 15.019531 6.800781 14.800781 6.800781 C 14.578125 6.800781 14.398438 6.980469 14.398438 7.199219 L 14.398438 8.398438 L 13.199219 8.398438 C 12.980469 8.398438 12.800781 8.578125 12.800781 8.800781 C 12.800781 9.019531 12.980469 9.199219 13.199219 9.199219 L 14.660156 9.199219 C 14.679688 9.226562 14.691406 9.257812 14.71875 9.28125 L 17.035156 11.601562 L 12.964844 11.601562 L 11.882812 10.515625 C 11.726562 10.359375 11.472656 10.359375 11.316406 10.515625 C 11.160156 10.671875 11.160156 10.925781 11.316406 11.082031 L 12.234375 12 L 11.316406 12.917969 C 11.160156 13.074219 11.160156 13.328125 11.316406 13.484375 C 11.394531 13.5625 11.496094 13.601562 11.601562 13.601562 C 11.703125 13.601562 11.804688 13.5625 11.882812 13.484375 L 12.964844 12.398438 L 17.035156 12.398438 L 14.632812 14.800781 L 13.199219 14.800781 C 12.980469 14.800781 12.800781 14.980469 12.800781 15.199219 C 12.800781 15.421875 12.980469 15.601562 13.199219 15.601562 L 14.398438 15.601562 L 14.398438 16.800781 C 14.398438 17.019531 14.578125 17.199219 14.800781 17.199219 C 15.019531 17.199219 15.199219 17.019531 15.199219 16.800781 L 15.199219 15.367188 L 18.164062 12.398438 L 20.234375 12.398438 L 14.234375 18.398438 L 12.800781 18.398438 C 12.578125 18.398438 12.398438 18.578125 12.398438 18.800781 C 12.398438 19.019531 12.578125 19.199219 12.800781 19.199219 L 14 19.199219 L 14 20.398438 C 14 20.621094 14.179688 20.800781 14.398438 20.800781 C 14.621094 20.800781 14.800781 20.621094 14.800781 20.398438 L 14.800781 18.964844 L 21.367188 12.398438 L 23.601562 12.398438 C 23.820312 12.398438 24 12.222656 24 12 C 24 11.777344 23.820312 11.601562 23.601562 11.601562 Z M 23.601562 11.601562"/>
</svg>

<svg xmlns="http://www.w3.org/2000/svg" width="32" height="32" viewBox="0 0 24 24">
    <path d="M9.2 6.398a.401.401 0 1 1-.803.003.401.401 0 0 1 .802-.003zm0 0M9.602 18.8a.401.401 0 1 1-.802-.004.401.401 0 0 1 .802.005zm0 0M11.602 17.2a.401.401 0 1 1 0 0zm0 0M9.2 15.2a.401.401 0 1 1-.803.002.401.401 0 0 1 .802-.003zm0 0M12 14.8a.4.4 0 1 1-.8-.003.4.4 0 0 1 .8.004zm0 0M9.602 12c0 .223-.18.398-.403.398a.398.398 0 1 1 0-.796c.223 0 .403.175.403.398zm0 0M11.2 8.8a.4.4 0 1 1-.801-.003.4.4 0 0 1 .8.004zm0 0M8.8 8.8A.401.401 0 1 1 8 8.797.401.401 0 0 1 8.8 8.8zm0 0M11.602 4.398a.401.401 0 1 1 0 0zm0 0M6 9.602a.4.4 0 1 1-.8-.004.4.4 0 0 1 .8.004zm0 0M6 10.8a.4.4 0 1 1-.8-.003.4.4 0 0 1 .8.004zm0 0M6 12c0 .223-.18.398-.398.398a.398.398 0 1 1 0-.796c.218 0 .398.175.398.398zm0 0M6 13.2a.401.401 0 1 1-.802.002.401.401 0 0 1 .802-.003zm0 0M6 14.398a.401.401 0 1 1-.802.003.401.401 0 0 1 .802-.003zm0 0"/>
    <path d="M23.602 12.8h-1.633l-.043.352c-.598 4.817-4.867 8.45-9.926 8.45-1.605 0-2.746-.364-3.484-1.11-1.13-1.133-1.313-3.152-1.329-5.558.028-.57.024-1.235.016-1.977 0-.309-.004-.629-.004-.957 0-.344.004-.684.008-1.008.004-.746.008-1.414-.02-1.984.02-2.383.211-4.375 1.329-5.5.738-.746 1.879-1.11 3.484-1.11 5.059 0 9.328 3.633 9.926 8.45l.043.351h1.633a.4.4 0 0 0 0-.8h-.93C21.863 5.358 17.34 1.601 12 1.601c-3.918 0-7.512 1.503-9.7 4.035a.774.774 0 0 0-.234-.035C.648 5.602 0 8.918 0 12s.648 6.398 2.066 6.398c.082 0 .16-.011.235-.035 2.187 2.532 5.781 4.035 9.699 4.035 5.34 0 9.863-3.757 10.672-8.796h.93a.401.401 0 0 0 0-.801zM.8 12c0-3.61.828-5.586 1.289-5.586l.004.008c.351.375.332 2.254.316 4.074-.004.48-.012.984-.012 1.504s.008 1.023.012 1.504c.004.516.008 1.031.004 1.52-.008 1.253-.074 2.308-.348 2.578-.43 0-1.265-1.977-1.265-5.602zm2.082 5.82c.129-.261.21-.617.258-1.078 0-.004.004-.008.004-.012.046-.457.066-1.023.07-1.703v-.004c.004-.453 0-.953-.004-1.515-.004-.48-.012-.988-.012-1.508s.008-1.027.012-1.508c.004-.562.008-1.062.004-1.52a18.574 18.574 0 0 0-.07-1.706c0-.004-.004-.004-.004-.008-.047-.461-.13-.817-.258-1.082C4.125 4.73 5.87 3.645 7.879 3.016c-.895.953-1.262 2.308-1.402 3.914A.957.957 0 0 0 6 6.8c-1.367 0-2.398 2.235-2.398 5.2 0 2.965 1.03 5.2 2.398 5.2a.922.922 0 0 0 .477-.134c.14 1.61.507 2.965 1.402 3.914-2.008-.625-3.754-1.71-4.996-3.16zm3.512-7.14c0 .433.003.875.003 1.32 0 .445-.003.887-.003 1.32-.008.54-.008 1.063-.008 1.575-.032.718-.11 1.28-.297 1.468-.027.028-.05.035-.09.035-.754 0-1.602-1.878-1.602-4.398 0-2.52.848-4.398 1.602-4.398.043 0 .066.007.094.035.183.183.261.715.293 1.398-.004.535 0 1.082.008 1.645zm0 0"/>
    <path d="M23.602 11.602h-2.235l-6.566-6.567V3.602a.401.401 0 0 0-.8 0L13.999 4.8h-1.2a.401.401 0 1 0 0 .8h1.434l6 6h-2.07L15.281 8.72c-.023-.028-.054-.04-.082-.055V7.2a.4.4 0 0 0-.8 0v1.2h-1.2a.401.401 0 0 0 0 .8h1.461c.02.028.031.059.059.082l2.316 2.32h-4.07l-1.082-1.085a.4.4 0 0 0-.567.566l.918.918-.918.918a.4.4 0 0 0 .567.566l1.082-1.086h4.07l-2.402 2.403h-1.434a.4.4 0 0 0 0 .8h1.2v1.2a.401.401 0 0 0 .8 0v-1.434l2.965-2.969h2.07l-6 6h-1.433a.401.401 0 0 0 0 .8L14 19.2v1.2a.401.401 0 1 0 .8 0v-1.434l6.567-6.567h2.235a.398.398 0 1 0 0-.796zm0 0"/>
</svg>
